X: 19627
T: Jaunty Warren, The
R: hornpipe
M: 4/4
K: Gmajor
|:B2BA G2GD|EDB,G, A,2G,2|B,DED B,DGA|BGdB A2GA|
B2BA G2GD|EDB,G, A,2G,2|GABd edBG|AGAB G2G2:|
|:Bdde geed|BABd AGED|GABG dGBG|ABAG EGD2|
GFGA BGBd|eged BGED|GABd edBG|AGAB G2G2:|

